X: 12012
T: Epic, The
R: reel
M: 4/4
K: Emixolydian
|:"F#min"F2AF ABBA|BcBA BAFE|"D"D2AD ABBA|"E"Bcec BAFE:|
|:"F#min"FAcA FAcA|"A"EAcA EAcA|"D"DABA DABA|"E"EABA EABA:|

